usr/share/icons/biglinux-icons-material/scalable/mimetypes/image-vnd.dgn.svg

<svg width="24" height="24" viewBox="0 0 24 24" fill="none" xmlns="http://www.w3.org/2000/svg">
<rect x="1" y="1" width="22" height="22" rx="6.6" fill="url(#paint0_radial_21_683)"/>
<path opacity="0.75" d="M10.5455 4V6.90912H13.4546V4H10.5455ZM11.2728 4.72728H12.7274V6.18184H11.2728V4.72728ZM10.0626 5.6422L8.6575 6.01893L8.84659 6.72221L10.2517 6.34548L10.0626 5.6422ZM7.88076 6.36948L6.47566 6.74621L6.66475 7.44949L8.06986 7.07276L7.88076 6.36948ZM14.1819 6.56948V7.32221L18.6496 8.51859L14.1819 9.79423V19.998H14.203L20.0001 18.3419V8.1164L14.1819 6.56948ZM5.45456 6.90897C5.26167 6.90897 5.07669 6.9856 4.94029 7.12199C4.8039 7.25838 4.72728 7.44336 4.72728 7.63625C4.72728 7.82914 4.8039 8.01412 4.94029 8.15052C5.07669 8.28691 5.26167 8.36353 5.45456 8.36353C5.64745 8.36353 5.83243 8.28691 5.96882 8.15052C6.10521 8.01412 6.18184 7.82914 6.18184 7.63625C6.18184 7.44336 6.10521 7.25838 5.96882 7.12199C5.83243 6.9856 5.64745 6.90897 5.45456 6.90897ZM4 8.36353V18.5454L12.7274 20V9.81809L4 8.36353ZM19.2729 9.09808V17.3185L14.9092 16.1483V10.3454L19.2729 9.09808ZM14.9092 16.9011L18.7798 17.9382L14.9092 19.0436V16.9011Z" fill="white"/>
<defs>
<radialGradient id="paint0_radial_21_683" cx="0" cy="0" r="1" gradientUnits="userSpaceOnUse" gradientTransform="translate(17.5 1) rotate(116.565) scale(24.5967)">
<stop stop-color="#78BBF8"/>
<stop offset="1" stop-color="#3097F4"/>
</radialGradient>
</defs>
</svg>

<svg xmlns="http://www.w3.org/2000/svg" width="24" height="24" fill="none"><rect width="22" height="22" x="1" y="1" fill="url(#a)" rx="6.6"/><path fill="#fff" d="M10.546 4v2.91h2.909V4h-2.91Zm.727.727h1.454v1.455h-1.454V4.727Zm-1.21.915-1.405.377.189.703 1.405-.377-.19-.703ZM7.88 6.37l-1.405.377.189.703 1.405-.376-.19-.704Zm6.3.2v.753L18.65 8.52l-4.468 1.275v10.204h.021L20 18.342V8.116L14.182 6.57Zm-8.726.34a.727.727 0 1 0 0 1.455.727.727 0 0 0 0-1.455ZM4 8.364v10.181L12.727 20V9.818L4 8.364Zm15.273.734v8.22l-4.364-1.17v-5.803l4.364-1.247Zm-4.364 7.803 3.87 1.037-3.87 1.106V16.9Z" opacity=".75"/><defs><radialGradient id="a" cx="0" cy="0" r="1" gradientTransform="rotate(116.565 8.441 5.908) scale(24.5967)" gradientUnits="userSpaceOnUse"><stop stop-color="#78BBF8"/><stop offset="1" stop-color="#3097F4"/></radialGradient></defs></svg>
